public/svgs/solid/square-0.svg

<svg xmlns="http://www.w3.org/2000/svg" viewBox="0 0 448 512"><!-- Font Awesome Pro 6.0.0-alpha2 by @fontawesome - https://fontawesome.com License - https://fontawesome.com/license (Commercial License) --><path d="M224 176C197.531 176 176 197.531 176 224V288C176 314.469 197.531 336 224 336S272 314.469 272 288V224C272 197.531 250.469 176 224 176ZM384 32H64C28.654 32 0 60.654 0 96V416C0 451.346 28.654 480 64 480H384C419.346 480 448 451.346 448 416V96C448 60.654 419.346 32 384 32ZM320 288C320 340.938 276.938 384 224 384S128 340.938 128 288V224C128 171.062 171.062 128 224 128S320 171.062 320 224V288Z"/></svg>

<svg xmlns="http://www.w3.org/2000/svg" viewBox="0 0 448 512"><!--! Font Awesome Pro 6.5.1 by @fontawesome - https://fontawesome.com License - https://fontawesome.com/license (Commercial License) Copyright 2023 Fonticons, Inc. --><path d="M64 32C28.7 32 0 60.7 0 96V416c0 35.3 28.7 64 64 64H384c35.3 0 64-28.7 64-64V96c0-35.3-28.7-64-64-64H64zm160 96c53 0 96 43 96 96v64c0 53-43 96-96 96s-96-43-96-96V224c0-53 43-96 96-96zm-48 96v64c0 26.5 21.5 48 48 48s48-21.5 48-48V224c0-26.5-21.5-48-48-48s-48 21.5-48 48z"/></svg>
